X:439
%%etbk:tnset id:135,pos:2,rep:2x,ant:
%%etbk:video src:ytube,cde:HQlB0ytsM7I,desc:
%%etbk:pldat 2016-09-08T18:45,2016-02-08T19:16,2015-07-29T17:30,2015-04-23T19:03,2015-04-22T16:30,2015-04-21T17:31,2015-02-18T17:30,2015-02-14T14:40,2014-10-30T18:32,2014-10-29T16:34,2014-10-28T15:09,2014-10-25T14:45,2014-10-24T18:53,2014-10-23T18:50,2014-10-19T14:49,2014-10-12T15:25,2014-10-11T14:42,2014-10-09T09:26,2014-10-05T16:32,2014-10-03T15:39,2014-09-30T11:19,2014-09-27T10:52,2014-09-25T17:33,2014-09-10T16:58,2014-07-05T14:50,2014-05-11T12:25,2014-03-23T15:31,2014-01-22T16:21,2014-01-21T17:16,2014-01-20T18:32,2014-01-19T13:40,2014-01-18T14:15,2014-01-14T19:26,2014-01-13T18:06,2014-01-09T18:18,2014-01-08T15:53,2014-01-03T16:14,2013-12-28T13:32,2013-12-27T16:49,2013-12-22T16:35,2013-12-18T17:04,2013-12-17T16:29,2013-12-15T16:09,2013-10-28T19:22,2013-10-18T16:46,2013-10-16T17:06,2013-10-14T18:39,2013-10-11T18:21,2013-10-08T15:22,2013-09-12T18:36,2013-08-26T18:28,2013-05-23T18:39,2013-05-21T17:00,2013-05-10T15:20,2013-05-07T19:28,2013-05-01T17:12
T: Bog an Lochan
Z: Piano Box Version by Martin Fleischmann
H: Created 2013-02-19 /  Last Modified 2013-02-19
R: highland
L: 1/8
M: 4/4
K: Edor
|: "em"!1!E2E2 !1!E>!2!F!4!B>F | !1!E2E2 "D"!2!F<!1!D!3!A>!2!F | "em"!1!E2E2 !1!E>!2!F!4!B>!3!A |1 "bm"!4!B<!5!d!3!A<!5!d !2!F<!1!DD>F:|2 "bm"!4!B<!5!d!3!A>!5!d !2!F<!1!DD>!3!A||
|: "em"!4!B2B>A !4!B<!1!EE>!3!A | !4!B2B>!5!d "D"!2!F<!1!DD>!3!A | "em"!4!B2!2!B>A !3!d>e!5!f>!1!A|1 "bm"!4!d/c/B/!1!A/ !4!d>!1!A !2!F<!1!DD>!3!A :|2 "bm"!4!d/c/B/!1!A/ !4!d>!1!A !2!F<!1!DD>!4!f||
"em"!3!e2!1!e2 !1!e>!2!f!5!b>f | !1!e2e2 "bm"!2!f<!1!d!4!a>!2!f | "em"!1!e2e2 !1!e>!2!f!5!b>f | "bm"!3!g<!1!e!5!b>!1!e !1!d!2!f/g/ !4!a>!2!f|
"em"!3!g<!1!e!5!b>e g<eb>e | !3!g<!1!e!5!b>!1!e "bm"!1!d!2!f/g/ !4!a>!2!f | "em"!3!g<!1!e!5!b>!1!e "bm"!3!d>ef>e|d/c/B/A/ d>A F<DD>A||
|: "em"!4!B2B>A !4!B<!1!EE>!3!A | !4!B2B>!5!d "D"!2!F<!1!DD>!3!A | "em"!4!B2!2!B>A !3!d>e!5!f>!1!A|1 "bm"!4!d/c/B/!1!A/ !4!d>!1!A !2!F<!1!DD>!3!A :|2 "bm"!4!d/c/B/!1!A/ !4!d>!1!A !2!F<!1!DD>F||


